frontend/svgs/biz028.svg

<?xml version="1.0" encoding="UTF-8"?> <svg width="100px" height="100px" viewBox="0 0 100 100" version="1.1" xmlns="http://www.w3.org/2000/svg" xmlns:xlink="http://www.w3.org/1999/xlink"> <g id="28.-Goal" stroke="none" stroke-width="1" fill="none" fill-rule="evenodd" stroke-linecap="round" stroke-linejoin="round"> <path d="M49.940366,89.8807319 C71.998821,89.8807319 89.8807319,71.998821 89.8807319,49.940366 C89.8807319,27.8819109 71.998821,10 49.940366,10 C27.8819109,10 10,27.8819109 10,49.940366 C10,71.998821 27.8819109,89.8807319 49.940366,89.8807319 L49.940366,89.8807319 Z" id="Layer-1" stroke="#FEC957" stroke-width="4" fill="#FEC957"></path> <path d="M49.940366,75.3569625 C63.9775646,75.3569625 75.3569625,63.9775646 75.3569625,49.940366 C75.3569625,35.9031673 63.9775646,24.5237694 49.940366,24.5237694 C35.9031673,24.5237694 24.5237694,35.9031673 24.5237694,49.940366 C24.5237694,63.9775646 35.9031673,75.3569625 49.940366,75.3569625 L49.940366,75.3569625 Z" id="Layer-2" stroke="#FF8D8D" stroke-width="4" fill="#FF8D8D"></path> <path d="M49.940366,60.8331931 C55.9563083,60.8331931 60.8331931,55.9563083 60.8331931,49.940366 C60.8331931,43.9244237 55.9563083,39.0475389 49.940366,39.0475389 C43.9244237,39.0475389 39.0475389,43.9244237 39.0475389,49.940366 C39.0475389,55.9563083 43.9244237,60.8331931 49.940366,60.8331931 L49.940366,60.8331931 Z" id="Layer-3" stroke="#FFFFFF" stroke-width="4" fill="#FFFFFF"></path> <path d="M49.5,50.5 L8,92" id="Layer-4" stroke="#576574" stroke-width="6"></path> <polygon id="Layer-5" stroke="#576574" stroke-width="6" points="46 48 52 48 52 54"></polygon> <polyline id="Layer-6" stroke="#576574" stroke-width="6" points="3 91 9 91 9 97"></polyline> </g> </svg>

<svg width="100" height="100" xmlns="http://www.w3.org/2000/svg"><g fill="none" fill-rule="evenodd" stroke-linecap="round" stroke-linejoin="round"><path d="M49.94 89.88C72 89.88 89.88 72 89.88 49.94 89.88 27.882 72 10 49.94 10 27.882 10 10 27.882 10 49.94 10 72 27.882 89.88 49.94 89.88h0z" stroke="#FEC957" stroke-width="4" fill="#FEC957"/><path d="M49.94 75.357c14.038 0 25.417-11.38 25.417-25.417S63.977 24.524 49.94 24.524 24.524 35.904 24.524 49.94c0 14.038 11.38 25.417 25.416 25.417h0z" stroke="#FF8D8D" stroke-width="4" fill="#FF8D8D"/><path d="M49.94 60.833c6.016 0 10.893-4.877 10.893-10.893 0-6.016-4.877-10.892-10.893-10.892-6.016 0-10.892 4.876-10.892 10.892 0 6.016 4.876 10.893 10.892 10.893h0z" stroke="#FFF" stroke-width="4" fill="#FFF"/><path d="M49.5 50.5L8 92M46 48h6v6zM3 91h6v6" stroke="#576574" stroke-width="6"/></g></svg>
